X: 1717
T: Sen Şarkı Söylediğin Zaman
C: Münir Nurettin Selçuk
O: Turkey
F: http://compmusic.upf.edu/node/140
N: sultaniyegah--sarki--nimsofyan--sen_sarki--munir_nurettin_selcuk
N: makam= sultaniyegah
N: form= sarki
N: usul= nimsofyan = 2/4
M: 2/4
L: 1/16
K: C _B ^c  
Q: 1/4=78
%%MIDI tuningsystem comma53
A4 d4  | e2f4e2  | d2c4e2  | d8  | e4 f4  | g2e4g2  | \
w:  ARANAĞME  |   |   |   |   |   | 
f2d4fe  | e8  | .e4 .g4  | 
w:   |   |   | 
f2e4d2  | .d4 .f4  | e2c4A2  | A4 A4  | A2f4e2  | \
w:   |   |   |   |   | 
d2c4ed  | d8  | A4 d4  | e2f4e2  | 
w:   |   |  ARANAĞME  |   | 
d2c4e2  | d8  | e4 f4  | g2e4g2  | f2d4fe  | e8  | \
w:   |   |   |   |   |   | 
.e4 .g4  | f2e4d2  | .d4 .f4  | 
w:   |   |   | 
e2c4A2  | A4 A4  | A2f4e2  | d2c4ed  | d8  | A4 d4  | \
w:   |   |   |   |   |  Sen  şar  | 
e2f4e2  | d2fe d2c2  | 
w:  kı  söy le  |  di ğin  *  *  za  | 
d6z2  | e4 f4  | g4 e2g2  | f3e d2fe  | e6z2  | \
w:  man    |  Mev sim  |  ler  de ği  |  şir *  *  gi  |  bi   | 
e2g2 f2e2  | d3c B2c2  | 
w:  kı mıl  |  dar *  dı  i  | 
d8  | A2Bc d4  | e2f4f2  | f3e d2e2  | f4 e2f2  | \
w:  çim    |  SAZ  |  Du dak la  |  rın *  da  do  |  ğar dı  şa  | 
f2{g}fe f4  | e2f2 edcd  | 
w:  fak *  *  *  lar   |  ve  gü neş  | 
e6f2  | edcd e4  | ^f2g4g2  | g3^f e2f2  | \
w:  ler   SAZ  |   |  Ge çer di   |  göz *  *  le  | 
g2g^f g4  | z2_7/8b2 a2g2  | 
w:  rim *  *  den   |  öy *  le   | 
f3e f2g2  | a8  | f3g a4  | a2a6  | _7/8b8  | \
w:  kız *  lar   |  ki    |  SAZ  |  Fe cir  |  den   | 
g2g4_7/8b2  | a3g f4  | z2e4g2  | f2e2 d2c2  | 
w:  ka deh  |  ler *  de   |  nağ me   |  iç *  miş  | 
.d3.f .e2.d2  | .c2.B2 .A4  | A4 d4  | e2f4e2  | \
w:  ler   SAZ  |   |  Sen  şar  |  kı  söy le  | 
d2fe d2d2  | a8  | a2a2 a4  | 
w:  di ğin  *  *  za  |  man    |  Ne  ka dar   | 
_7/8b6a2  | a3g f4  | g2_7/8b2 a2g2  | f3e d2a2  | a8  | \
w:  genç ti   |  dün *  ya   |  ve  ne  *  gü  |  zel  |  di    | 
d2f2 a4  | a2=c'6  | a2a4=c'2  | 
w:  SAZ  |  Ba har   |  sa bah la  | 
_7/8bab4z2  | g2g4g2  | g4 a2_7/8b2  | agfe f4  | \
w:  rı *  nın   |  ra hat lı  |  ğı  i çi  |  miz *  *  *  de    | 
a3g f2fe  | f6z2  | 
w:  SAZ  |   | 
e4 f4  | f2f2 a4  | g2a4g2  | f2fe f2z2  | \
w:  Bir  ses   |  ki  sü kûn   |  ve  son  |  suz *  *  luk    | 
f4 f4  | f2fe g3f  | f3e e3d  | 
w:  Bir  ses   |  ki  ha *  yat   |  ol *  muş  | 
d2f2 e2d2  | c2d2 e2fe  | e8  | A2c2 e4  | \
w:  tu  biz  |   |  de    |  SAZ  | 
e4 f4  | d2d2 e4  | =c2d4c2  | 
w:  Bir  ses   |  ki  sü kûn   |  ve  son  | 
B2BA B4  | B4 B4  | B2BA _7/8e3d  | d3=c c3B  | \
w:  suz *  *  luk    |  Bir  ses   |  ki  ha *  yat_  |  ol *  muş  | 
B2Ac B2A2  | ^G2A2 B2BA  | 
w:  tu  biz  |   | 
A3=c B2A2  | ^G2A2 B2BA  | A8  | A2Bc d4  | \
w:  de   SAZ  |   |   |   | 
A4 d4  | e2f4e2  | d2fe d2c2  | 
w:  Sen  şar  |  kı  söy le  |  di ğin  *  za  | 
d6z2  | c2d4d2  | _7/8e3d c2d2  | ^f_7/8eed e4  | \
w:  man    |  Ba har_ i  |  çin *  *  de   |  â *  *  *  lem   | 
d2c4d2  | dcB4BA  | 
w:  *  bah ti  |  yar *  *  dı   | 
A8  | A2BA A2z2  | A4 A4  | d4 c2d2  | e2fe e4  | \
w:  can    |  SAZ  |  Bir  hil  |  kat  sa ba  |  hı  *  *  ki   | 
g3f f3e  | e2d4{e}dc  | 
w:  her  *  şey   |  be yaz  | 
c8  | (3d2c2d2 c2z2  | d4 d4  | d2a6  | g4 _7/8b4  | \
w:  dı    |  SAZ  |  Bir  vaz  |  ge çiş   |  sen den   | 
a6g2  | f3e f2g2  | a8  | z2g4g2  | 
w:  gay rı   |  her  *  şey   |  den    |  Öy le   | 
g4 a3g  | f4 z4  | e2e4g2  | f2e2 d4  | c2d2 e2ed  | \
w:  bir  an   |  ki   |  ha ya ta   |  do yul  |  maz  | 
d6f2  | e2d2 c2B2  | 
w:  dı   SAZ  |   | 
A4 d4  | e2f4e2  | d2fe d2c2  | d8  | =c2c4c2  | \
w:  Sen  şar  |  kı  söy le  |  di ğin  *  *  za  |  man    |  *  Öy le   | 
=c4 d3c  | B6z2  | d3=c B4  | 
w:  bir  an   |  ki   |  SAZ  | 
z2B2 A2B2  | A2G2 F2G2  | A2B2 A2B2  | A2G2 F2G2  | \
w:  öy *  le   |  Bir  *  an   |  ki  SAZ  |   | 
A6z2  | E2E4G2  | 
w:   |  Ha ya ta   | 
F2E2 D4  | C2D2 E2ED  | C4 D12  | A4 d4  | \
w:  do yul  |  maz  |  dı    |   | 
e2f4e2  | d2fe d2c2  | d8  | 
w:  SAZ  |   |   | 
|


